X: 561
T: Da yengtao
%%abc-version 2.0
%%abcx-abcm2ps-target-version 5.9.1 (29 Sep 2008)
%%abc-creator hum2abc beta
%%abcx-conversion-date 2013/10/02 07:52:30
%%abc-edited-by Helmut Schaffrath
%%humdrum-veritas 3459653714
%%humdrum-veritas-data 3145186325
%%continueall 1
%%barnumbers 0
L: 1/8
M: 2/4
K: A
c e f a [I:setbarnb 1]| 
e4 | 
f2c B | 
A BA2 | 
f2c B | 
A B c e | 
A4 | 
BB2c | 
e2e2 | 
B2c B | 
A FA2 | 
B2c2 | 
F B A F | 
E C E F | 
F EC2 | 
A4 |]  



